X: 131001
T: I LOST MY LOVE
Q: "Scotch Jig."
R: Jig.
%R: jig
B: James Kerr "Merry Melodies" v.1 p.31 s.0 #1
Z: 2017 John Chambers <jc:trillian.mit.edu>
M: 6/8
L: 1/8
K: Am
|: uE |\
ABA AGE | c3 uc2ud | efe edc | g3 e2a |\
gec cge | dBG GAB | c2A BGE | c3 A2 :|
|: ug |\
aba age | gag geg | aba age | g3 e2a |\
gec cge | dBG Ged | c2A BGE | c3 A2 :|

%%sep 1 1 500
%%sep 1 1 500

